X:1
L:1/8
M:2/4
K:Dmin
""Dm"" A,2 DF | A2 BA |""A7"" A2 GE | ^C4 | A,2 ^CE | G4 |""Dm"" A,2 DF | A4 |""Dm"" A,2 DF | A2 BA | 
""A7"" A2 GE | ^C4 | A,2 ^CE | G2 FE |""Dm"" D2-""Gm"" D2- |""D7"" DA Bc |""Gm"" d2 cB | d2 cB | d2 cB | 
""Dm"" A4 |""A7"" B2 AG | B2 AG |""Dm"" A>F- F z |""A7"" G>E- E z |""Dm"" A,2 DF | A2 BA |""A7"" A2 GE | ^C4 | 
 A,2 ^CE | G2 FE |""Dm"" D2-""Gm"" D2- |""Dm"" D2 z2 |]
